img/svg/aktivitetsplan_hover.svg

<?xml version="1.0" encoding="UTF-8"?>
<svg width="32px" height="30px" viewBox="0 0 32 30" version="1.1" xmlns="http://www.w3.org/2000/svg" xmlns:xlink="http://www.w3.org/1999/xlink">
    <!-- Generator: Sketch 52.4 (67378) - http://www.bohemiancoding.com/sketch -->
    <title>chat-double-bubble-2</title>
    <desc>Created with Sketch.</desc>
    <g id="Ditt-Sykefravær---landingssiden" stroke="none" stroke-width="1" fill="none" fill-rule="evenodd">
        <g id="Ditt-sykefravær-innganger-til-FO-" transform="translate(-105.000000, -1589.000000)" fill="#3E3832">
            <g id="chat-double-bubble-2" transform="translate(105.000000, 1589.000000)">
                <path d="M26.6666667,0.666666667 C26.6666667,0.298666667 26.3666667,0 26,0 L0.666666667,0 C0.3,0 0,0.298666667 0,0.666666667 L0,16.6666667 C0,17.0346667 0.3,17.3333333 0.666666667,17.3333333 L4,17.3333333 L4,22 C4,22.2693333 4.164,22.5133333 4.412,22.616 C4.49466667,22.6493333 4.58133333,22.6666667 4.66666667,22.6666667 C4.84133333,22.6666667 5.01066667,22.5986667 5.13866667,22.472 L10.276,17.3333333 L13.3333333,17.3333333 L13.3333333,11.3333333 C13.3333333,10.9653333 13.6333333,10.6666667 14,10.6666667 L26.6666667,10.6666667 L26.6666667,0.666666667 Z" id="Path"></path>
                <path d="M31.3333333,12 L15.3333333,12 L14.6666667,12 L14.6666667,12.6666667 L14.6666667,23.3333333 C14.6666667,23.7013333 14.9666667,24 15.3333333,24 L22.1586667,24 L22.4133333,24 L22.6013333,24.168 L28.224,29.1666667 C28.3493333,29.276 28.508,29.3333333 28.6666667,29.3333333 C28.76,29.3333333 28.852,29.3133333 28.94,29.2746667 C29.18,29.168 29.3333333,28.9293333 29.3333333,28.6666667 L29.3333333,24.6666667 L29.3333333,24 L30,24 L31.3333333,24 C31.7,24 32,23.7013333 32,23.3333333 L32,12.6666667 C32,12.2986667 31.7,12 31.3333333,12 Z" id="Path"></path>
            </g>
        </g>
    </g>
</svg>

<svg width="32" height="30" xmlns="http://www.w3.org/2000/svg"><g fill="#3E3832" fill-rule="evenodd"><path d="M26.667.667c0-.368-.3-.667-.667-.667H.667A.668.668 0 0 0 0 .667v16c0 .368.3.666.667.666H4V22a.669.669 0 0 0 1.139.472l5.137-5.139h3.057v-6c0-.368.3-.666.667-.666h12.667v-10z"/><path d="M31.333 12H14.667v11.333c0 .368.3.667.666.667h7.08l.188.168 5.623 4.999a.675.675 0 0 0 .716.108.664.664 0 0 0 .393-.608V24h2a.668.668 0 0 0 .667-.667V12.667c0-.368-.3-.667-.667-.667z"/></g></svg>
